src/images/bank.svg

<svg width="170" height="184" viewBox="0 0 170 184" fill="none" xmlns="http://www.w3.org/2000/svg">
<path d="M10.7384 112.152L85.0483 69.2484L159.354 112.152L85.0483 155.051L10.7384 112.152Z" fill="#E3EBEF"/>
<path d="M44.1649 112.152L85.0483 88.5465L125.928 112.152L85.0483 135.753L44.1649 112.152Z" fill="#FFF200"/>
<path d="M10.7694 112.252L85.0484 155.009V160.391L10.7694 117.534V112.252Z" fill="#D1D9DD"/>
<path d="M5.38281 120.77L85.149 166.397L85.0213 172.155L5.38281 126.152V120.77Z" fill="#D1D9DD"/>
<path d="M0 129.136L85.0483 177.581L85.1296 183.722L0 134.522V129.136Z" fill="#D1D9DD"/>
<path d="M5.38281 120.646L10.7694 117.534L85.0484 160.391L85.149 166.397L5.38281 120.646Z" fill="#E3EBEF"/>
<path d="M0 129.186L5.38276 126.075L90.5433 175.135L85.1567 178.242L0 129.186Z" fill="#E3EBEF"/>
<path d="M85.0485 135.753V107.384L126.33 83.5508V112.152L85.0485 135.753Z" fill="#D1D9DD"/>
<path d="M43.7703 112.283V83.6514L85.1064 107.485V135.858L43.7703 112.283Z" fill="#D1D9DD"/>
<path d="M76.7939 142.796L85.1022 137.998L93.306 142.796L85.048 147.498L76.7939 142.796Z" fill="#BCC5CA"/>
<path d="M93.3059 142.742V145.691L85.048 150.396V147.502L93.3059 142.742Z" fill="#C7D1D6"/>
<path d="M76.79 142.793V145.691L85.048 150.397V147.502L76.79 142.793Z" fill="#D1D9DD"/>
<path d="M82.8309 144.982L80.6135 142.746L82.8309 140.513H87.2656L89.4868 142.746L87.2656 144.982H82.8309Z" fill="#9C9C95"/>
<path d="M87.2536 103.677H82.7919V144.982H87.2536V103.677Z" fill="#E3EBEF"/>
<path d="M87.2496 144.982L89.5057 142.769V103.677H87.2496V144.982Z" fill="#B2BDC3"/>
<path d="M80.6133 142.753L82.7919 144.982V103.642H80.5862L80.6133 142.753Z" fill="#F4F9FB"/>
<path d="M91.2397 134.461L99.5519 129.662L107.752 134.461L99.4977 139.162L91.2397 134.461Z" fill="#BCC5CA"/>
<path d="M107.752 134.41V137.355L99.4977 142.061V139.166L107.752 134.41Z" fill="#C7D1D6"/>
<path d="M91.2397 134.458V137.356L99.4977 142.061V139.167L91.2397 134.458Z" fill="#D1D9DD"/>
<path d="M97.2805 136.647L95.0593 134.414L97.2805 132.177H101.715L103.933 134.414L101.715 136.647H97.2805Z" fill="#9C9C95"/>
<path d="M101.699 95.3456H97.2377V136.651H101.699V95.3456Z" fill="#E3EBEF"/>
<path d="M101.7 136.647L103.956 134.437V95.3456H101.7V136.647Z" fill="#B2BDC3"/>
<path d="M95.0632 134.418L97.238 136.647V95.307H95.0361L95.0632 134.418Z" fill="#F4F9FB"/>
<path d="M105.689 126.125L114.001 121.327L122.201 126.125L113.947 130.827L105.689 126.125Z" fill="#BCC5CA"/>
<path d="M122.201 126.075V129.02L113.943 133.725V130.831L122.201 126.075Z" fill="#C7D1D6"/>
<path d="M105.689 126.123V129.021L113.943 133.727V130.832L105.689 126.123Z" fill="#D1D9DD"/>
<path d="M111.726 128.312L109.509 126.079L111.726 123.842H116.164L118.382 126.079L116.164 128.312H111.726Z" fill="#9C9C95"/>
<path d="M116.149 87.0104H111.687V128.316H116.149V87.0104Z" fill="#E3EBEF"/>
<path d="M116.145 128.312L118.405 126.102V87.0104H116.145V128.312Z" fill="#B2BDC3"/>
<path d="M109.509 126.083L111.687 128.312V86.9755H109.485L109.509 126.083Z" fill="#F4F9FB"/>
<path d="M120.139 117.79L128.447 112.992L136.651 117.79L128.393 122.496L120.139 117.79Z" fill="#BCC5CA"/>
<path d="M136.651 117.74V120.688L128.393 125.39V122.495L136.651 117.74Z" fill="#C7D1D6"/>
<path d="M120.135 117.787V120.689L128.393 125.391V122.496L120.135 117.787Z" fill="#D1D9DD"/>
<path d="M126.176 119.98L123.958 117.743L126.176 115.507H130.61L132.831 117.743L130.61 119.98H126.176Z" fill="#9C9C95"/>
<path d="M130.599 78.6749H126.137V119.98H130.599V78.6749Z" fill="#E3EBEF"/>
<path d="M130.595 119.98L132.851 117.767V78.6749H130.595V119.98Z" fill="#B2BDC3"/>
<path d="M123.958 117.747L126.137 119.98V78.6401H123.931L123.958 117.747Z" fill="#F4F9FB"/>
<path d="M134.584 109.455L142.896 104.656L151.096 109.455L142.842 114.16L134.584 109.455Z" fill="#BCC5CA"/>
<path d="M151.096 109.404V112.353L142.842 117.055V114.16L151.096 109.404Z" fill="#C7D1D6"/>
<path d="M134.584 109.451V112.354L142.842 117.055V114.161L134.584 109.451Z" fill="#D1D9DD"/>
<path d="M140.625 111.645L138.404 109.408L140.625 107.172H145.059L147.277 109.408L145.059 111.645H140.625Z" fill="#9C9C95"/>
<path d="M145.044 70.3397H140.582V111.645H145.044V70.3397Z" fill="#E3EBEF"/>
<path d="M145.044 111.645L147.3 109.431V70.3397H145.044V111.645Z" fill="#B2BDC4"/>
<path d="M138.407 109.412L140.582 111.645V70.3048H138.38L138.407 109.412Z" fill="#F4F9FB"/>
<path d="M85.0485 12.325L159.355 55.2245L122.167 0L85.0485 12.325Z" fill="#222220"/>
<path d="M66.4583 125.645V102.067L56.1223 96.0964V119.969L66.4583 125.645Z" fill="#BAC2C7"/>
<path d="M56.1223 96.0964L57.9372 97.1683V118.881L56.1223 119.969V96.0964Z" fill="#B2BDC3"/>
<path d="M55.7161 119.868L57.9373 118.881L66.559 123.714V126.307L55.7161 119.868Z" fill="#F4F9FB"/>
<path d="M159.208 112.268L85.0302 155.024V160.508L159.208 117.654V112.268Z" fill="#D1D9DD"/>
<path d="M164.59 120.886L85.0486 166.397L85.0215 171.954L164.59 126.272V120.886Z" fill="#D1D9DD"/>
<path d="M169.973 129.256L85.0215 178.258L85.0292 183.722L169.973 134.639V129.256Z" fill="#D1D9DD"/>
<path d="M164.59 120.762L159.208 117.654L85.0485 160.391L85.0292 166.397L164.59 120.762Z" fill="#E3EBEF"/>
<path d="M169.973 129.302L164.59 126.09L85.0215 171.954V178.258L169.973 129.302Z" fill="#E3EBEF"/>
<path d="M18.9619 109.42L27.274 104.621L35.4739 109.42L27.2199 114.125L18.9619 109.42Z" fill="#BCC5CA"/>
<path d="M35.474 109.369V112.318L27.2161 117.02V114.125L35.474 109.369Z" fill="#C7D1D6"/>
<path d="M18.9619 109.417V112.319L27.216 117.021V114.126L18.9619 109.417Z" fill="#D1D9DD"/>
<path d="M24.9986 111.61L22.7812 109.373L24.9986 107.137H29.4371L31.6545 109.373L29.4371 111.61H24.9986Z" fill="#9C9C95"/>
<path d="M29.4216 70.3047H24.9598V111.61H29.4216V70.3047Z" fill="#E3EBEF"/>
<path d="M29.4215 111.61L31.6775 109.396V70.3047H29.4215V111.61Z" fill="#B2BDC3"/>
<path d="M22.785 109.377L24.9598 111.61V70.27H22.7579L22.785 109.377Z" fill="#F4F9FB"/>
<path d="M33.4187 117.763L41.7308 112.964L49.9307 117.763L41.6766 122.468L33.4187 117.763Z" fill="#BCC5CA"/>
<path d="M49.9308 117.712V120.661L41.6729 125.363V122.468L49.9308 117.712Z" fill="#C7D1D6"/>
<path d="M33.4187 117.76V120.662L41.6728 125.364V122.469L33.4187 117.76Z" fill="#D1D9DD"/>
<path d="M39.4595 119.953L37.2383 117.716L39.4595 115.48H43.8942L46.1115 117.716L43.8942 119.953H39.4595Z" fill="#9C9C95"/>
<path d="M43.8786 78.6478H39.4169V119.953H43.8786V78.6478Z" fill="#E3EBEF"/>
<path d="M43.8787 119.953L46.1347 117.74V78.6478H43.8787V119.953Z" fill="#B2BDC3"/>
<path d="M37.2421 117.72L39.4168 119.953V78.613H37.215L37.2421 117.72Z" fill="#F4F9FB"/>
<path d="M62.333 134.453L70.6451 129.654L78.8489 134.453L70.591 139.154L62.333 134.453Z" fill="#BCC5CA"/>
<path d="M78.845 134.399V137.347L70.5909 142.049V139.158L78.845 134.399Z" fill="#C7D1D6"/>
<path d="M62.333 134.45V137.348L70.591 142.05V139.159L62.333 134.45Z" fill="#D1D9DD"/>
<path d="M68.3738 136.639L66.1565 134.402L68.3738 132.17H72.8085L75.0259 134.402L72.8085 136.639H68.3738Z" fill="#9C9C95"/>
<path d="M72.7929 95.334H68.3312V136.639H72.7929V95.334Z" fill="#E3EBEF"/>
<path d="M72.7931 136.639L75.0491 134.426V95.334H72.7931V136.639Z" fill="#B2BDC3"/>
<path d="M66.1565 134.406L68.3313 136.639V95.2992H66.1294L66.1565 134.406Z" fill="#F4F9FB"/>
<path d="M10.8429 64.6047L85.1489 21.7052L159.455 64.6047L85.1489 107.508L10.8429 64.6047Z" fill="#898982"/>
<path d="M10.8429 55.124L85.1489 12.2206L159.455 55.124L85.1489 98.0235L10.8429 55.124Z" fill="#61615C"/>
<path d="M85.1489 98.0234V102.768V107.508L47.9959 86.0583L10.8429 64.6047V59.8643V55.1239L47.9959 76.5737L85.1489 98.0234Z" fill="#E3EBEF"/>
<path d="M85.1488 98.0234V107.508L159.455 64.6047V55.1239L85.1488 98.0234Z" fill="#4F6175"/>
<path d="M10.8429 55.124L85.1489 98.0235L47.9611 42.799L10.8429 55.124Z" fill="#E3EBEF"/>
<path d="M47.9611 42.7989L122.166 0L159.354 55.2245L85.1489 98.0235L47.9611 42.7989Z" fill="#617990"/>
<path d="M10.8429 55.1239L47.9611 42.7989L122.167 0L85.0483 12.325L10.8429 55.1239Z" fill="#788DA3"/>
<path d="M47.9069 50.221L76.593 93.0857L18.8068 59.6089L47.9069 50.221Z" fill="#D1D9DD"/>
<path d="M50.1697 67.5396C52.0779 66.4379 52.0413 62.8021 50.0879 59.4189C48.1345 56.0356 45.0041 54.186 43.0959 55.2878C41.1877 56.3895 41.2244 60.0253 43.1778 63.4085C45.1312 66.7918 48.2616 68.6413 50.1697 67.5396Z" fill="#BAC3C7"/>
<path d="M44.6526 62.6002C43.3098 59.9959 42.6984 56.4551 43.9676 54.9808C43.6503 55.0233 43.3524 55.1162 43.0776 55.2749C41.1698 56.3777 41.2047 60.0153 43.1589 63.3974C45.1131 66.7795 48.2437 68.6292 50.1514 67.5302C50.3797 67.3986 50.581 67.2284 50.7551 67.0272C47.9767 67.1587 45.9296 65.073 44.6526 62.6002Z" fill="#F4F9FB"/>
<path d="M22.7577 58.3358L72.5027 86.9754L78.8452 95.2411L17.0421 60.0075L22.7577 58.3358Z" fill="#F4F9FB"/>
<path d="M31.0349 65.5141L32.3661 64.8175L59.9842 80.7104L58.5524 81.5888L31.0349 65.5141Z" fill="#8CB9E9"/>
<path d="M58.5525 81.5888L59.9843 80.7104L60.023 89.9745L58.5525 90.8684V81.5888Z" fill="#567CA5"/>
<path d="M31.0349 65.514L58.5524 81.5888V91.0154L31.0349 75.1264V65.514Z" fill="#6199D4"/>
<path d="M33.6741 69.2484L36.6189 70.951C37.1104 71.2335 37.4857 71.574 37.7489 71.9688C38.012 72.3635 38.1436 72.7427 38.1436 73.0987C38.1436 73.4005 38.0507 73.6056 37.8611 73.7101C37.7373 73.7798 37.5515 73.7875 37.3116 73.7333C37.6792 74.0313 37.9462 74.3409 38.1204 74.6543C38.2945 74.9678 38.3796 75.289 38.3796 75.6101C38.3796 75.8733 38.3177 76.0745 38.1939 76.2177C38.0701 76.357 37.9037 76.4267 37.6908 76.4267C37.5593 76.4267 37.358 76.3686 37.0949 76.2486C36.7389 76.09 36.5067 75.9778 36.3906 75.912L33.6741 74.3447V69.2484ZM35.2607 72.1622L35.9456 72.5569C36.1894 72.7001 36.3635 72.7543 36.4564 72.7272C36.5531 72.6963 36.5996 72.6034 36.5996 72.4447C36.5996 72.2977 36.5531 72.1545 36.4564 72.0152C36.3596 71.8759 36.1932 71.7366 35.9533 71.6011L35.2568 71.1987V72.1622H35.2607ZM35.2607 74.1629L36.0617 74.6272C36.3326 74.782 36.5222 74.8478 36.6344 74.813C36.7466 74.782 36.8008 74.6853 36.8008 74.5228C36.8008 74.3718 36.7466 74.2209 36.6344 74.0661C36.526 73.9113 36.3326 73.7527 36.0578 73.594L35.2607 73.1335V74.1629Z" fill="#E3EBEF"/>
<path d="M42.2148 78.4311L40.427 77.3979L40.1793 78.0945L38.5734 77.1657L40.4889 73.1761L42.207 74.1667L44.1225 80.366L42.474 79.414L42.2148 78.4311ZM41.8858 77.1425L41.3247 74.9871L40.7675 76.4963L41.8858 77.1425Z" fill="#E3EBEF"/>
<path d="M44.6292 75.5714L46.0996 76.4189L48.019 80.3428V77.5256L49.5011 78.3808V83.4733L48.019 82.6181L46.1112 78.7214V81.5191L44.6292 80.6639V75.5714Z" fill="#E3EBEF"/>
<path d="M50.55 78.9922L52.125 79.9016V81.8249L53.7735 80.8536L55.867 82.0609L54.0096 82.9123L55.9522 87.2038L54.0134 86.0854L52.9377 83.3689L52.125 83.752V84.9942L50.55 84.0848V78.9922Z" fill="#E3EBEF"/>
<path d="M22.7578 58.3358L24.9597 57.6238L70.5641 84.0771L72.5028 86.9755L22.7578 58.3358Z" fill="#F4F9FB"/>
</svg>

<svg width="170" height="184" fill="none" xmlns="http://www.w3.org/2000/svg"><path d="M10.738 112.152l74.31-42.904 74.306 42.904-74.306 42.899-74.31-42.899z" fill="#E3EBEF"/><path d="M44.165 112.152l40.883-23.606 40.88 23.606-40.88 23.601-40.883-23.601z" fill="#FFF200"/><path d="M10.77 112.252l74.278 42.757v5.382L10.77 117.534v-5.282zm-5.387 8.518l79.766 45.627-.128 5.758-79.638-46.003v-5.382zM0 129.136l85.048 48.445.082 6.141L0 134.522v-5.386z" fill="#D1D9DD"/><path d="M5.383 120.646l5.386-3.112 74.28 42.857.1 6.006-79.766-45.751zM0 129.186l5.383-3.111 85.16 49.06-5.386 3.107L0 129.186z" fill="#E3EBEF"/><path d="M85.049 135.753v-28.369l41.281-23.833v28.601l-41.281 23.601z" fill="#D1D9DD"/><path d="M43.77 112.283V83.651l41.336 23.834v28.373L43.77 112.283z" fill="#D1D9DD"/><path d="M76.794 142.796l8.308-4.798 8.204 4.798-8.258 4.702-8.254-4.702z" fill="#BCC5CA"/><path d="M93.306 142.742v2.949l-8.258 4.705v-2.894l8.258-4.76z" fill="#C7D1D6"/><path d="M76.79 142.793v2.898l8.258 4.706v-2.895l-8.258-4.709z" fill="#D1D9DD"/><path d="M82.83 144.982l-2.216-2.236 2.217-2.233h4.435l2.22 2.233-2.22 2.236H82.83z" fill="#9C9C95"/><path d="M87.254 103.677h-4.462v41.305h4.462v-41.305z" fill="#E3EBEF"/><path d="M87.25 144.982l2.256-2.213v-39.092H87.25v41.305z" fill="#B2BDC3"/><path d="M80.613 142.753l2.179 2.229v-41.34h-2.206l.027 39.111z" fill="#F4F9FB"/><path d="M91.24 134.461l8.312-4.799 8.2 4.799-8.254 4.701-8.258-4.701z" fill="#BCC5CA"/><path d="M107.752 134.41v2.945l-8.254 4.706v-2.895l8.254-4.756z" fill="#C7D1D6"/><path d="M91.24 134.458v2.898l8.258 4.705v-2.894l-8.258-4.709z" fill="#D1D9DD"/><path d="M97.28 136.647l-2.22-2.233 2.22-2.237h4.435l2.218 2.237-2.218 2.233h-4.434z" fill="#9C9C95"/><path d="M101.699 95.346h-4.461v41.305h4.461V95.346z" fill="#E3EBEF"/><path d="M101.7 136.647l2.256-2.21V95.346H101.7v41.301z" fill="#B2BDC3"/><path d="M95.063 134.418l2.175 2.229v-41.34h-2.202l.027 39.111z" fill="#F4F9FB"/><path d="M105.689 126.125l8.312-4.798 8.2 4.798-8.254 4.702-8.258-4.702z" fill="#BCC5CA"/><path d="M122.201 126.075v2.945l-8.258 4.705v-2.894l8.258-4.756z" fill="#C7D1D6"/><path d="M105.689 126.123v2.898l8.254 4.706v-2.895l-8.254-4.709z" fill="#D1D9DD"/><path d="M111.726 128.312l-2.217-2.233 2.217-2.237h4.438l2.218 2.237-2.218 2.233h-4.438z" fill="#9C9C95"/><path d="M116.149 87.01h-4.462v41.306h4.462V87.01z" fill="#E3EBEF"/><path d="M116.145 128.312l2.26-2.21V87.01h-2.26v41.302z" fill="#B2BDC3"/><path d="M109.509 126.083l2.178 2.229V86.975h-2.202l.024 39.108z" fill="#F4F9FB"/><path d="M120.139 117.79l8.308-4.798 8.204 4.798-8.258 4.706-8.254-4.706z" fill="#BCC5CA"/><path d="M136.651 117.74v2.948l-8.258 4.702v-2.895l8.258-4.755z" fill="#C7D1D6"/><path d="M120.135 117.787v2.902l8.258 4.702v-2.895l-8.258-4.709z" fill="#D1D9DD"/><path d="M126.176 119.98l-2.218-2.237 2.218-2.236h4.434l2.221 2.236-2.221 2.237h-4.434z" fill="#9C9C95"/><path d="M130.599 78.675h-4.462v41.305h4.462V78.675z" fill="#E3EBEF"/><path d="M130.595 119.98l2.256-2.213V78.675h-2.256v41.305z" fill="#B2BDC3"/><path d="M123.958 117.747l2.179 2.233V78.64h-2.206l.027 39.107z" fill="#F4F9FB"/><path d="M134.584 109.455l8.312-4.799 8.2 4.799-8.254 4.705-8.258-4.705z" fill="#BCC5CA"/><path d="M151.096 109.404v2.949l-8.254 4.702v-2.895l8.254-4.756z" fill="#C7D1D6"/><path d="M134.584 109.451v2.903l8.258 4.701v-2.894l-8.258-4.71z" fill="#D1D9DD"/><path d="M140.625 111.645l-2.221-2.237 2.221-2.236h4.434l2.218 2.236-2.218 2.237h-4.434z" fill="#9C9C95"/><path d="M145.044 70.34h-4.462v41.305h4.462V70.34z" fill="#E3EBEF"/><path d="M145.044 111.645l2.256-2.214V70.34h-2.256v41.305z" fill="#B2BDC4"/><path d="M138.407 109.412l2.175 2.233v-41.34h-2.202l.027 39.107z" fill="#F4F9FB"/><path d="M85.049 12.325l74.306 42.9L122.167 0 85.049 12.325z" fill="#222220"/><path d="M66.458 125.645v-23.578l-10.336-5.97v23.872l10.336 5.676z" fill="#BAC2C7"/><path d="M56.122 96.096l1.815 1.072v21.713l-1.815 1.088V96.096z" fill="#B2BDC3"/><path d="M55.716 119.868l2.221-.987 8.622 4.833v2.593l-10.843-6.439z" fill="#F4F9FB"/><path d="M159.208 112.268L85.03 155.024v5.484l74.178-42.854v-5.386zm5.382 8.618l-79.541 45.511-.028 5.557 79.569-45.682v-5.386zm5.383 8.37l-84.952 49.002.008 5.464 84.944-49.083v-5.383z" fill="#D1D9DD"/><path d="M164.59 120.762l-5.382-3.108-74.16 42.737-.019 6.006 79.561-45.635zm5.383 8.54l-5.383-3.212-79.569 45.864v6.304l84.952-48.956z" fill="#E3EBEF"/><path d="M18.962 109.42l8.312-4.799 8.2 4.799-8.254 4.705-8.258-4.705z" fill="#BCC5CA"/><path d="M35.474 109.369v2.949l-8.258 4.702v-2.895l8.258-4.756z" fill="#C7D1D6"/><path d="M18.962 109.417v2.902l8.254 4.702v-2.895l-8.254-4.709z" fill="#D1D9DD"/><path d="M24.999 111.61l-2.218-2.237L25 107.137h4.438l2.217 2.236-2.217 2.237H25z" fill="#9C9C95"/><path d="M29.422 70.305H24.96v41.305h4.462V70.305z" fill="#E3EBEF"/><path d="M29.422 111.61l2.255-2.214V70.305h-2.255v41.305z" fill="#B2BDC3"/><path d="M22.785 109.377l2.175 2.233V70.27h-2.202l.027 39.107z" fill="#F4F9FB"/><path d="M33.419 117.763l8.312-4.799 8.2 4.799-8.254 4.705-8.258-4.705z" fill="#BCC5CA"/><path d="M49.93 117.712v2.949l-8.257 4.702v-2.895l8.258-4.756z" fill="#C7D1D6"/><path d="M33.419 117.76v2.902l8.254 4.702v-2.895l-8.254-4.709z" fill="#D1D9DD"/><path d="M39.46 119.953l-2.222-2.237 2.221-2.236h4.435l2.218 2.236-2.218 2.237H39.46z" fill="#9C9C95"/><path d="M43.879 78.648h-4.462v41.305h4.462V78.648z" fill="#E3EBEF"/><path d="M43.879 119.953l2.256-2.213V78.648h-2.256v41.305z" fill="#B2BDC3"/><path d="M37.242 117.72l2.175 2.233v-41.34h-2.202l.027 39.107z" fill="#F4F9FB"/><path d="M62.333 134.453l8.312-4.799 8.204 4.799-8.258 4.701-8.258-4.701z" fill="#BCC5CA"/><path d="M78.845 134.399v2.948l-8.254 4.702v-2.891l8.254-4.759z" fill="#C7D1D6"/><path d="M62.333 134.45v2.898l8.258 4.702v-2.891l-8.258-4.709z" fill="#D1D9DD"/><path d="M68.374 136.639l-2.218-2.237 2.218-2.232h4.434l2.218 2.232-2.218 2.237h-4.434z" fill="#9C9C95"/><path d="M72.793 95.334H68.33v41.305h4.462V95.334z" fill="#E3EBEF"/><path d="M72.793 136.639l2.256-2.213V95.334h-2.256v41.305z" fill="#B2BDC3"/><path d="M66.156 134.406l2.175 2.233v-41.34H66.13l.027 39.107z" fill="#F4F9FB"/><path d="M10.843 64.605l74.306-42.9 74.306 42.9-74.306 42.903-74.306-42.903z" fill="#898982"/><path d="M10.843 55.124l74.306-42.903 74.306 42.903-74.306 42.9-74.306-42.9z" fill="#61615C"/><path d="M85.149 98.023v9.485l-37.153-21.45-37.153-21.453v-9.481l37.153 21.45 37.153 21.45z" fill="#E3EBEF"/><path d="M85.149 98.023v9.485l74.306-42.903v-9.481l-74.306 42.9z" fill="#4F6175"/><path d="M10.843 55.124l74.306 42.9L47.96 42.798 10.843 55.124z" fill="#E3EBEF"/><path d="M47.961 42.799L122.166 0l37.188 55.224-74.205 42.8L47.96 42.798z" fill="#617990"/><path d="M10.843 55.124L47.96 42.799 122.167 0 85.048 12.325 10.843 55.124z" fill="#788DA3"/><path d="M47.907 50.221l28.686 42.865-57.786-33.477 29.1-9.388z" fill="#D1D9DD"/><path d="M50.17 67.54c1.908-1.102 1.871-4.738-.082-8.121s-5.084-5.233-6.992-4.131c-1.908 1.102-1.872 4.737.082 8.12 1.953 3.384 5.084 5.233 6.992 4.132z" fill="#BAC3C7"/><path d="M44.653 62.6c-1.343-2.604-1.955-6.145-.685-7.62a2.391 2.391 0 00-.89.295c-1.908 1.103-1.873 4.74.08 8.122 1.955 3.383 5.086 5.232 6.993 4.133.229-.131.43-.302.604-.503-2.778.132-4.825-1.954-6.102-4.427zm-21.895-4.264l49.745 28.64 6.342 8.265-61.803-35.233 5.716-1.672z" fill="#F4F9FB"/><path d="M31.035 65.514l1.331-.697L59.984 80.71l-1.432.879-27.517-16.075z" fill="#8CB9E9"/><path d="M58.553 81.589l1.431-.879.039 9.265-1.47.893v-9.28z" fill="#567CA5"/><path d="M31.035 65.514l27.517 16.075v9.426L31.035 75.126v-9.612z" fill="#6199D4"/><path d="M33.674 69.248l2.945 1.703c.491.283.867.623 1.13 1.018.263.395.395.774.395 1.13 0 .301-.093.507-.283.611-.124.07-.31.078-.55.023.368.298.635.608.81.921.173.314.259.635.259.956 0 .263-.062.465-.186.608a.637.637 0 01-.503.209c-.132 0-.333-.058-.596-.178a9.68 9.68 0 01-.704-.337l-2.717-1.567v-5.097zm1.587 2.914l.685.395c.243.143.418.197.51.17.097-.03.144-.124.144-.282a.742.742 0 00-.144-.43c-.096-.14-.263-.278-.503-.414l-.696-.402v.963h.004zm0 2l.8.465c.272.155.461.22.573.186.113-.031.167-.128.167-.29a.773.773 0 00-.167-.457c-.108-.155-.301-.313-.576-.472l-.797-.46v1.029zm6.954 4.269l-1.788-1.033-.248.697-1.606-.93 1.916-3.989 1.718.99 1.916 6.2-1.649-.952-.26-.983zm-.33-1.288l-.56-2.156-.558 1.51 1.119.645zm2.745-1.572l1.47.848 1.919 3.924v-2.817l1.482.855v5.092l-1.482-.855-1.908-3.897v2.798l-1.482-.855V75.57zm5.92 3.421l1.575.91v1.923l1.648-.971 2.094 1.207-1.857.851 1.942 4.292-1.939-1.119-1.075-2.716-.813.383v1.242l-1.575-.91v-5.092z" fill="#E3EBEF"/><path d="M22.758 58.336l2.202-.712 45.604 26.453 1.939 2.898-49.745-28.64z" fill="#F4F9FB"/></svg>
